src/assets/selectIconsSpells/speciale_1.svg

<svg xmlns="http://www.w3.org/2000/svg" viewBox="0 0 512 512"><path d="M0 0h512v512H0z"/><path fill="#fff" d="M384 22.545L307.271 99.27l25.458 25.458L366 91.457v329.086l-33.271-33.272-25.458 25.458L384 489.455l76.729-76.726-25.458-25.458L402 420.543V91.457l33.271 33.272L460.73 99.27 384 22.545zm-242.443.258c-23.366 3.035-44.553 30.444-44.553 65.935 0 19.558 6.771 36.856 16.695 48.815l11.84 14.263-18.217 3.424c-12.9 2.425-22.358 9.24-30.443 20.336-8.085 11.097-14.266 26.558-18.598 44.375-7.843 32.28-9.568 71.693-9.842 106.436h42.868l11.771 157.836c29.894 6.748 61.811 6.51 90.602.025l10.414-157.861h40.816c-.027-35.168-.477-75.125-7.584-107.65-3.918-17.933-9.858-33.371-18.04-44.342-8.185-10.97-18.08-17.745-32.563-19.989l-18.592-2.88 11.736-14.704c9.495-11.897 15.932-28.997 15.932-48.082 0-37.838-23.655-65.844-49.399-65.844l-4.843-.093z"/></svg>

<?xml version="1.0" encoding="UTF-8" standalone="no"?>
<!DOCTYPE svg PUBLIC "-//W3C//DTD SVG 1.1//EN" "http://www.w3.org/Graphics/SVG/1.1/DTD/svg11.dtd">
<svg width="100%" height="100%" viewBox="0 0 512 512" version="1.1" xmlns="http://www.w3.org/2000/svg" xmlns:xlink="http://www.w3.org/1999/xlink" xml:space="preserve" xmlns:serif="http://www.serif.com/" style="fill-rule:evenodd;clip-rule:evenodd;stroke-linejoin:round;stroke-miterlimit:2;">
    <rect x="0" y="0" width="512" height="512" style="fill-rule:nonzero;"/>
    <path d="M141.557,22.803C118.191,25.838 97.004,53.247 97.004,88.738C97.004,108.296 103.775,125.594 113.699,137.553L125.539,151.816L107.322,155.24C94.422,157.665 84.964,164.48 76.879,175.576C68.794,186.673 62.613,202.134 58.281,219.951C50.438,252.231 48.713,291.644 48.439,326.387L91.307,326.387L103.078,484.223C132.972,490.971 164.889,490.733 193.68,484.248L204.094,326.387L244.91,326.387C244.883,291.219 244.433,251.262 237.326,218.737C233.408,200.804 227.468,185.366 219.286,174.395C211.101,163.425 201.206,156.65 186.723,154.406L168.131,151.526L179.867,136.822C189.362,124.925 195.799,107.825 195.799,88.74C195.799,50.902 172.144,22.896 146.4,22.896L141.557,22.803Z" style="fill:rgb(221,221,221);fill-rule:nonzero;"/>
    <path d="M384,22.545L460.73,99.27L435.271,124.729L402,91.457L402,420.543L435.271,387.271L460.729,412.729L384,489.455L307.271,412.729L332.729,387.271L366,420.543L366,91.457L332.729,124.728L307.271,99.27L384,22.545Z" style="fill:url(#_Linear1);"/>
    <defs>
        <linearGradient id="_Linear1" x1="0" y1="0" x2="1" y2="0" gradientUnits="userSpaceOnUse" gradientTransform="matrix(153.459,0,0,466.91,307.271,256)"><stop offset="0" style="stop-color:rgb(255,0,187);stop-opacity:1"/><stop offset="1" style="stop-color:rgb(39,255,0);stop-opacity:1"/></linearGradient>
    </defs>
</svg>
